public/images/partner1.svg

<svg width="157" height="157" viewBox="0 0 157 157" fill="none" xmlns="http://www.w3.org/2000/svg">
<circle cx="78.5" cy="78.5" r="78.5" fill="url(#paint0_linear_110_1409)"/>
<path d="M117.187 79V111.352C117.187 112.997 116.365 114.485 115.033 115.425C114.211 115.973 113.232 116.287 112.292 116.287C111.665 116.287 111.038 116.169 110.49 115.934L98.3483 109.511C97.33 109.433 94.6667 109.354 93.9225 109.354H75.0833C69.13 109.354 64.3125 104.537 64.3125 98.5833V94.3533H91.7292C100.502 94.3533 107.396 85.8933 107.396 75.0833V68.2683C112.879 68.7775 117.187 73.36 117.187 79ZM101.521 54.1918V75.0794C101.521 82.5837 97.2203 88.4627 91.7292 88.4627H58.79L48.7046 99.9894C47.8272 100.988 46.6679 101.525 45.4772 101.525C44.9916 101.525 44.5059 101.439 44.0281 101.258C42.0776 100.522 40.8164 98.4463 40.8164 95.967V54.1918C40.8164 46.6914 45.1169 40.8125 50.6081 40.8125H91.7331C97.2242 40.8125 101.521 46.6914 101.521 54.1918ZM89.7708 71.1667C89.7708 69.5452 88.4548 68.2292 86.8333 68.2292H55.5C53.8785 68.2292 52.5625 69.5452 52.5625 71.1667C52.5625 72.7882 53.8785 74.1042 55.5 74.1042H86.8333C88.4548 74.1042 89.7708 72.7882 89.7708 71.1667ZM89.7708 59.4167C89.7708 57.7952 88.4548 56.4792 86.8333 56.4792H55.5C53.8785 56.4792 52.5625 57.7952 52.5625 59.4167C52.5625 61.0382 53.8785 62.3542 55.5 62.3542H86.8333C88.4548 62.3542 89.7708 61.0382 89.7708 59.4167Z" fill="white"/>
<defs>
<linearGradient id="paint0_linear_110_1409" x1="104" y1="4.64892e-06" x2="6.37371" y2="183.217" gradientUnits="userSpaceOnUse">
<stop stop-color="#00C0FF"/>
<stop offset="0.606474" stop-color="#0165FC"/>
</linearGradient>
</defs>
</svg>

<svg xmlns="http://www.w3.org/2000/svg" width="157" height="157" fill="none"><circle cx="78.5" cy="78.5" r="78.5" fill="url(#a)"/><path fill="#fff" d="M117.187 79v32.352c0 1.645-.822 3.133-2.154 4.073-.822.548-1.801.862-2.741.862a4.6 4.6 0 0 1-1.802-.353l-12.142-6.423c-1.018-.078-3.681-.157-4.425-.157h-18.84a10.764 10.764 0 0 1-10.77-10.77v-4.23h27.416c8.773 0 15.667-8.46 15.667-19.27v-6.816c5.483.51 9.791 5.092 9.791 10.732m-15.666-24.808v20.887c0 7.505-4.3 13.384-9.792 13.384H58.79L48.705 99.989c-.878.999-2.037 1.536-3.228 1.536-.485 0-.971-.086-1.449-.267-1.95-.736-3.212-2.812-3.212-5.291V54.192c0-7.5 4.3-13.38 9.792-13.38h41.125c5.491 0 9.788 5.88 9.788 13.38m-11.75 16.975a2.94 2.94 0 0 0-2.938-2.938H55.5a2.939 2.939 0 0 0 0 5.875h31.333a2.94 2.94 0 0 0 2.938-2.937m0-11.75a2.94 2.94 0 0 0-2.938-2.938H55.5a2.939 2.939 0 0 0 0 5.875h31.333a2.94 2.94 0 0 0 2.938-2.937"/><defs><linearGradient id="a" x1="104" x2="6.374" y1="0" y2="183.217" gradientUnits="userSpaceOnUse"><stop stop-color="#00C0FF"/><stop offset=".606" stop-color="#0165FC"/></linearGradient></defs></svg>
